X:1
T:Title
%%score { ( 1 3 ) | ( 2 4 ) }
L:1/8
Q:1/4=100
M:4/4
K:Bb
V:1 treble nm="Grand Piano"
V:3 treble 
V:2 bass 
V:4 bass 
V:1
 B,2 D[DF] [Fd]2 [DB]2 | [B,EG]2 [B,GB][B,EG] [B,DF]4 | %2
w: Thoro~Harris * * * *||
 [D,B,]2 [F,B,D][K:treble][F,DF] [Fd]2 [B,FB]2 | [EGc]2 [DFB][CFA] [DFB]4 | %4
w: ||
 [B,G]2 [C^FA][_DGB] [=D=FB]2 F2 | z4 c4[K:bass] | D2 FB d2 [FB]2 | c2 BA [DB]4 | %8
w: ||||
 [Fd][DF][EG][GB] [Fd]>[Ec] [DB]2 | [Fd][DF][EG][FB] [=Ec]>[Ed] c2 | B,DFB d>c B2 | %11
w: |||
 [Gc]2 [FB][EA] [DB]4 |] %12
w: |
V:2
 [B,,D,]2 [B,,F,B,][B,,F,] [B,,B,]2 [B,,B,]2 | E,2 E,E, B,,4 | B,,2 B,,B,, B,2 D,2 | %3
 E,2 F,F, B,,4 | E,2 E,E, D,2 [_D,G,B,]2 | .G,2 z2 [A,F]4 | %6
 [B,,F,B,]2 [D,B,][F,B,D] [B,F]2 [D,B,]2 | [E,G,E]2 [F,D][F,C] [B,,F,]4 | %8
 [B,,B,][B,,B,][B,,B,][B,,B,] [B,,B,]>[B,,F,] [B,,F,]2 | z4 B,G, z2 | %10
 [B,,D,][B,,F,B,][D,B,][F,B,D] [B,F]>[^F,A,E] [G,B,D]2 | [E,E]2 [F,D][F,C] [B,,B,]4 |] %12
V:3
 x8 | x8 | x3[K:treble] x5 | x8 | x8 | =EG[EB][Ed] z[K:bass] E,D,C, | x8 | x8 | x8 | x8 | x8 | %11
 x8 |] %12
V:4
 x8 | x8 | x8 | x8 | x8 | [C,B,]-[C,=E,B,][C,G,][C,B,] .F,2 z2 | x8 | x8 | x8 | %9
 [B,,B,][B,,B,][E,B,][D,B,] C,>C, [F,A,E]2 | x8 | x8 |] %12

